icons/op-getting-started-24.svg

<svg width="24" height="24" viewBox="0 0 24 24" fill="none" xmlns="http://www.w3.org/2000/svg">
<path d="M20 15.1402L16.7188 13.25V14.2866H4V15.9939H16.7188V17L20 15.1402ZM6.375 7.94512C6.4375 7.88415 6.5 7.85366 6.53125 7.79268C6.53125 8.0061 6.5 8.25 6.5 8.58537V11.3902H7.21875V7.06098H6.625L5.3125 8.06707L5.6875 8.4939C6.0625 8.18902 6.3125 8.0061 6.375 7.94512ZM9.65625 10.75L9.59375 10.689H8.90625C8.84375 11.1463 8.8125 11.6341 8.6875 12.1829H9.1875C9.4375 11.6037 9.5625 11.1159 9.65625 10.75ZM13.375 10.7805H11.25V10.75L12.0312 10.0183C12.375 9.71341 12.625 9.43902 12.7812 9.2561C12.9375 9.07317 13.0312 8.89024 13.0938 8.70732C13.1875 8.55488 13.2188 8.34146 13.2188 8.15854C13.2188 7.79268 13.0938 7.51829 12.8438 7.30488C12.5938 7.09146 12.25 7 11.8438 7C11.5938 7 11.3438 7.03049 11.0938 7.12195C10.875 7.21341 10.625 7.33537 10.375 7.54878L10.7812 8.0061C10.9688 7.85366 11.1562 7.73171 11.3125 7.67073C11.4688 7.60976 11.6562 7.57927 11.8125 7.57927C12.0312 7.57927 12.1875 7.64024 12.3125 7.7622C12.4375 7.85366 12.5 8.03659 12.5 8.21951C12.5 8.37195 12.4688 8.4939 12.4062 8.61585C12.375 8.7378 12.2812 8.89024 12.1875 9.0122C12.0625 9.16463 11.8438 9.40854 11.5 9.7439L10.3438 10.872V11.3902H13.375V10.7805ZM14.875 10.75L14.8438 10.689H14.1562C14.0938 11.1463 14.0312 11.6341 13.9062 12.1829H14.4375C14.6875 11.6037 14.7812 11.1159 14.875 10.75ZM18.0938 11.1159C18.4062 10.9024 18.5312 10.5671 18.5312 10.1402C18.5312 9.86585 18.4375 9.62195 18.2812 9.46951C18.125 9.28659 17.8438 9.16463 17.5 9.13415V9.10366C17.7812 9.04268 18.0312 8.92073 18.1875 8.7378C18.3438 8.55488 18.4375 8.31098 18.4375 8.03659C18.4375 7.73171 18.3125 7.45732 18.0625 7.27439C17.8125 7.09146 17.4375 7 17 7C16.4688 7 16 7.12195 15.5938 7.42683L15.9375 7.91463C16.1562 7.79268 16.3438 7.70122 16.5 7.64024C16.6562 7.60976 16.8125 7.57927 16.9688 7.57927C17.2188 7.57927 17.4062 7.60976 17.5312 7.73171C17.6562 7.82317 17.7188 7.97561 17.7188 8.15854C17.7188 8.64634 17.3438 8.85976 16.6562 8.85976H16.25V9.43902H16.625C17.0312 9.43902 17.3438 9.5 17.5312 9.62195C17.7188 9.71341 17.8125 9.89634 17.8125 10.1098C17.8125 10.3841 17.7188 10.5671 17.5625 10.689C17.375 10.811 17.125 10.872 16.7812 10.872C16.5938 10.872 16.375 10.872 16.1875 10.811C15.9688 10.75 15.75 10.689 15.5625 10.5976V11.2378C15.9062 11.3902 16.3125 11.4512 16.8125 11.4512C17.375 11.4512 17.8125 11.3293 18.0938 11.1159Z" fill="black"/>
</svg>

<svg xmlns="http://www.w3.org/2000/svg" width="24" height="24" viewBox="0 0 24 24"><path d="m20 15.14-3.281-1.89v1.037H4v1.707h12.719V17L20 15.14ZM6.375 7.945c.063-.061.125-.091.156-.152 0 .213-.031.457-.031.792v2.805h.719V7.061h-.594L5.312 8.067l.376.427c.374-.305.624-.488.687-.549Zm3.281 2.805-.062-.061h-.688c-.062.457-.094.945-.218 1.494h.5c.25-.579.374-1.067.468-1.433Zm3.719.03H11.25v-.03l.781-.732c.344-.305.594-.579.75-.762a1.64 1.64 0 0 0 .313-.549c.094-.152.125-.366.125-.548 0-.366-.125-.641-.375-.854-.25-.214-.594-.305-1-.305-.25 0-.5.03-.75.122a2.592 2.592 0 0 0-.719.427l.406.457c.188-.152.375-.274.531-.335.157-.061.344-.092.5-.092.219 0 .376.061.5.183.126.092.188.275.188.458a.822.822 0 0 1-.094.396 1.261 1.261 0 0 1-.218.396 9.406 9.406 0 0 1-.688.732l-1.156 1.128v.518h3.031v-.61Zm1.5-.03-.031-.061h-.688c-.062.457-.125.945-.25 1.494h.532c.25-.579.343-1.067.437-1.433Zm3.219.366c.312-.214.437-.549.437-.976 0-.274-.093-.518-.25-.67-.156-.183-.437-.305-.781-.336v-.03c.281-.061.531-.183.688-.366.156-.183.25-.427.25-.701a.92.92 0 0 0-.376-.763C17.812 7.091 17.438 7 17 7c-.531 0-1 .122-1.406.427l.344.488c.218-.122.406-.214.562-.275.156-.03.312-.061.469-.061.25 0 .437.031.562.153.125.091.188.244.188.427 0 .487-.375.701-1.063.701h-.406v.579h.375c.406 0 .719.061.906.183.188.091.281.274.281.488 0 .274-.093.457-.25.579-.187.122-.437.183-.781.183-.187 0-.406 0-.593-.061a3.802 3.802 0 0 1-.626-.213v.64c.344.152.75.213 1.25.213.563 0 1-.122 1.282-.335Z"/></svg>
